!!!!SEGMENT: ss080-OrientalDanceOrScene_M.krn
!!!COM: J.S. Zamecnik
!!!OTL: OrientalDanceOrScene
!!!OPR:Sam Fox Moving Picture Music, Volume2
!!!YOY:1913
!!!ONB: National
**kern	**dynam
*>[A,A1,A2,B,B1,C,C1,C2,B,B2]	*>[A,A1,A2,B,B1,C,C1,C2,B,B2]
*clefG2	*
*k[]	*
*a:	*
*M2/2	*
*met(c|)	*
*>A	*>A
=1	=1
!LO:TX:a:B:t=Moderato	!
4a	p
(4a	.
4ee)	.
(4ee	.
=2	=2
8ddL)	.
8ee	.
8dd	.
8ccJ	.
4dd	.
8ccL	.
8bJ	.
=3	=3
4a	<
(4a	.
4g)	[
(4g	.
=4	=4
1e)	>]
=5	=5
4a	.
(4a	.
4ee)	.
(4ee	.
=6	=6
8ddL)	.
8ee	.
8dd	.
8ccJ	.
4dd	.
8ccL	.
8bJ	.
=7	=7
4a	<
(4a	.
4cc)	[
(4cc	.
=8	=8
2.b)	>
8ccL	.
8ddJ	]
=9	=9
2ee	mf
2aa	.
=10	=10
8ffL	.
8gg	.
8ff	.
8eeJ	.
2ff	.
=11	=11
2b	p
2ee	.
=12	=12
8ccL	.
8dd	.
8cc	.
8bJ	.
2a	.
=13	=13
2f	<
2g	[[
=14	=14
1e	>]
=15	=15
(4a	<
8bL	.
8ccJ	.
4b)	.
4a	[
*>A1	*>A1
=16	=16
1b	>]
*>A2	*>A2
=17	=17
2.b	>
(4g	] p
*>B	*>B
=18||	=18||
*k[]	*
*C:	*
!LO:TX:a:t=[segno]	!
8gg)	p
8r	.
!LO:TX:b:i:t=delicato	!
2gg	.
(12ffL	.
12gg	.
12ffJ	.
=19	=19
8ee)	.
8r	.
2ee	.
(12ddL	.
12ee	.
12ddJ	.
=20	=20
8cc)	.
8r	.
2cc	.
(12aL	.
12b	.
12aJ	.
=21	=21
2.g)	.
(4e	.
=22	=22
8aL)	.
8g'	.
8f'	.
8e'J	.
8a'L	.
8g'	.
8f'	.
8e'J	.
=23	=23
(2g	.
8d)	.
8r	.
4g	.
=24	=24
(2ee	<
8dd)	[
8r	.
4g	.
=25	=25
(2aa^	.
8gg)	.
8r	.
(4g	p
=26	=26
8gg)	.
8r	.
2gg	.
(12ffL	.
12gg	.
12ffJ	.
=27	=27
8ee)	.
8r	.
2ee	.
(12ddL	.
12ee	.
12ddJ	.
=28	=28
8cc)	.
8r	.
2cc	.
(12aL	.
12b	.
12aJ	.
=29	=29
2.g)	.
(4e	.
=30	=30
8aL)	.
8g'	.
8f'	.
8e'J	.
8a'L	.
8g'	.
8f'	.
8e'J	.
=31	=31
(2g	.
8d)	.
8r	.
4g	.
=32	=32
(2ee	.
8dd)	.
8r	.
4g	.
*>B1	*>B1
=33	=33
2.cc	.
4ee	f
*>B2	*>B2
=34||	=34||
!LO:TX:a:Bi:t=Fine	!
2.cc	.
4r	.
*>C	*>C
=35!|:	=35!|:
!LO:TX:a:i:t=con fuoco	!
4.aa^	f
8ee	.
2gg#X^	.
=36	=36
4.ff^	.
8b	.
2ee^	.
=37	=37
8aaL	.
8bb	.
8aa	.
8eeJ	.
2gg#X^	.
=38	=38
8ffL	.
8gg	.
8ff	.
8bJ	.
2ee^	.
=39	=39
2eee^	<
2eee^	.
=40	=40
4eee^	.
8dddL	.
8eeeJ	[
8fffL	.
8eee	.
8dddJ	.
8r	.
*>C1	*>C1
=41	=41
2ccc^	.
4.bb^	.
8aa	.
=42	=42
2.bb	>
4ee	] f
*>C2	*>C2
=43	=43
2ccc^	.
2bb^	.
=44	=44
4aa	.
!LO:TX:b:i:t=D.S. al Fine	!
4r	.
2gg	mf
==	==
*-	*-
!!!ENC: Yukiko Yoden
!!!END: 2022/03/21